X: 39867
T: This Is My Love, Do You Like Her?
R: jig
M: 6/8
K: Adorian
|:ABA AGE c3 d3|ege ede g3 e2a|
age gfe dBG GAB|1 cBA BGE A2B c2B:|2 cBA BGE ABA A2z||
aba age g2g ged|eaa age g2g eaa|
age gfe dBG GAB|cBA BGE ABA A2z|
aba age gea ged|eaa age g2g e2a|
age g2g dBG GAB|c3 B3 A2B c2B||

